!!!ONR: No. 45
!! From Harold Courlander, "Haiti Singing"
!! Chapel Hill: University of North Carolina Press, 1939
!! Copyright University of North Carolina Press
!!!ENC: D. Huron
**kern
*clefG2
*k[]
*M2/4
=1-
8r
8a
8a
8a
=
8.a
16b
8.dd
16b
=
4ee
12dd
12b
12b
=
12a
12a
12g
8.e
16g
=
8a
8a
8.a
16b
=
8ee
8dd
8.ee
16dd
=
8ee
8dd
8a
16r
[16dd
=
16dd]
16b
16ee
16dd
8ee
16r
16dd
=
8ee
8dd
8a
16r
[16dd
=
16dd]
16b
16ee
16dd
8ee
16r
16dd
=
8ee
8ee
8a
16r
[16dd
=
16dd]
16b
16ee
16b
8a
16r
[16b
=
16b]
16a
16a
16a
8g
[8b
=
16b]
16ee
16b
16dd
8a
16r
16b
=
8e
8g
8a
8a
=
2a
==
*-
